!!!OTL: Die Brombeerpflueckerin
!!!OTL-incipit:Es wollt ein Maedchen frueh aufstehn,
!!!ARE: Europa, Mitteleuropa, Deutschland (), Sachsen, Erzgebirge, Rittersgruen
!!!YOR: 7, S. 104
!!    1893 aufgezeichnet
!!!SCT: Q0147I
!!!TXL: @@DE
!!!YEM: Copyright 1995, estate of Helmut Schaffrath.
**kern	**text
*ICvox	*
*M4/4	*
*met(c)	*
*k[f#]	*
*G:	*
!LO:TX:a:t=100	!
{4d	1._Es
=1	=1
4g	wollt
4g	ein
(4g	Mäd-
8f#)	.
8e	-chen
=2	=2
4e	früh
4d	auf
4d}	stehn,
{4d	drei-
=3	=3
4e	-vier-
4cc	-tel
4b	Stund
4a	vor
=4	=4
2g	Tag.
4r}	.
{4d	Es
=5	=5
4g	wollt
4g	ein
(4g	Mäd-
8f#)	.
8e	-chen
=6	=6
4e	früh
4d	auf
4d}	stehn,
{4d	drei-
=7	=7
4e	-vier-
4cc	-tel
4b	Stund
4a	vor
=8	=8
2g	Tag.
4r}	.
{8gL	Jn
8aJ	den
=9	=9
4b	Wald
4b	wollt
4b	sie
4dd	spa-
=10	=10
4dd	-zie-
4cc	-ren
2a}	gehn,
=11	=11
{4d	ju
4f#	ja
4a	ju
4ee	spa-
=12	=12
4ee	-zie-
4dd	-ren
4b}	gehn,
{4dd	bis
=13	=13
4dd	daß
4cc	der
4e	Tag
4f#	an-
=14	=14
2g	-brach.
4r}	.
{8gL	Jn
8aJ	den
=15	=15
4b	Wald
4b	wollt
4b	sie
4dd	spa-
=16	=16
4dd	-zie-
4cc	-ren
2a}	gehn,
=17	=17
{4d	ju
4f#	ja
4a	ju
4ee	spa-
=18	=18
4ee	-zie-
4dd	-ren
4b}	gehn,
{4dd	bis
=19	=19
4dd	daß
4cc	der
4e	Tag
4f#	an-
=20	=20
2g	-brach.
4r}	.
==	==
!!!AGN: Ballade, Verfuehrung, Schwangerschaft
!! Vierte und siebte Zeile refrainartig.
!!!ONB: ESAC (Essen Associative Code) Database: BALLADE
!!!AMT: simple quadruple
!!!AIN: vox
!!!EED: Helmut Schaffrath
!!!EEV: 1.0
!!!source: Deutsche Volkslieder mit ihren Melodien Balladen. Herausgegeben vom Deutschen Volksliedarchiv. Siebenterer Band. Freiburg/Breisgau 1982.
!!!page: 104
!!!ENC: Anna Maria Matuszewska
!!!EEV: 2025/03/07
*-	*-
